X:1
T:Title
%%score { ( 1 3 ) | 2 }
L:1/8
M:3/4
K:Bb
V:1 treble nm="Grand Piano"
V:3 treble 
V:2 bass 
V:1
 z2 z2[Q:1/4=94] [Fd]>[Ec] | [Ge]3 [Fd] [Ec][DB] | [EG]4 [GB]>[EG] | [DF]3 [DB] c>d | %4
 c4 [Fd]>[Ec] | [Ge]3 [Fd] [Ec][DB] | [EG]4 (3[GB]AG | F3 B d>c |[M:2/4] [DB]4 |[M:1/4] A>A | %10
[M:3/4] A4 z2 | [DB]4 A>A | z z/ E/ Ee d>c | [Fd]4 [Fd]>[Ec] | [Ge]3 [Fd] [Ec][DB] | %15
 [EG]4 (3[GB]AG | F3 B d>c |[M:2/4] [DB]4 |] %18
V:2
 z2 z2 [B,,B,]>[B,,B,] | [B,,B,]3 [B,,B,] [B,,B,][B,,B,] | [E,B,]4 [E,E]>[E,B,] | %3
 [B,,B,]3 [B,,B,] [F,A,F]>[F,B,F] | [F,A,F]4 [B,,B,]>[B,,B,] | [B,,B,]3 [B,,B,] [B,,B,][B,,B,] | %6
 [E,B,]4 (3[E,E]-[E,EF][E,B,E] | [F,B,D]3 [F,B,D] [F,A,F]>[F,A,E] |[M:2/4] [B,,B,]4 |[M:1/4] z2 | %10
[M:3/4] [F,CE]>[F,C] [F,C][F,B,D] [F,A,F]>[F,A,E] | [B,,B,]4 z2 | %12
 [F,CE]>[F,C] [F,C][F,A,G] [F,A,F]>[F,A,E] | [B,,B,]4 [B,,B,]>[B,,B,] | %14
 [B,,B,]3 [B,,B,] [B,,B,][B,,B,] | [E,B,]4 (3[E,E]-[E,EF][E,B,E] | %16
 [F,B,D]3 [F,B,D] [F,A,F]>[F,A,E] |[M:2/4] [B,,B,]4 |] %18
V:3
 x6 | x6 | x6 | x6 | x6 | x6 | x6 | x6 |[M:2/4] x4 |[M:1/4] x2 |[M:3/4] z z/ E/ EB d>c | x6 | %12
 A4 z2 | x6 | x6 | x6 | x6 |[M:2/4] x4 |] %18

